new-front/public/package.svg

<svg fill="none" height="18" viewBox="0 0 18 18" width="18" xmlns="http://www.w3.org/2000/svg"><g stroke="#fff" stroke-linecap="round" stroke-linejoin="round"><path d="m9.06684 9-.07465 7.2289"/><path d="m15.4609 12.3281v-6.65615c0-.09961-.0264-.19744-.0766-.28348-.0502-.08603-.1224-.1572-.2091-.20621l-5.90623-3.33832c-.08444-.04773-.17979-.07281-.27678-.07281-.097 0-.19234.02508-.27679.07281l-5.90625 3.33832c-.08671.04901-.15886.12018-.20906.20621-.0502.08604-.07665.18387-.07665.28348v6.65615c0 .0996.02645.1974.07665.2834.0502.0861.12235.1572.20906.2062l5.90625 3.3384c.08445.0477.17979.0728.27679.0728.09699 0 .19234-.0251.27678-.0728l5.90623-3.3384c.0867-.049.1589-.1201.2091-.2062.0502-.086.0766-.1838.0766-.2834z"/><path d="m15.384 5.38785-6.31706 3.61217-6.46587-3.61294"/><path d="m12.4469 10.4422v-3.37502l-6.52356-3.64514"/></g></svg>

<svg width="18" height="18" viewBox="0 0 18 18" fill="none" xmlns="http://www.w3.org/2000/svg">
    <path d="M9.06684 9L8.99219 16.2289" stroke="white" stroke-linecap="round" stroke-linejoin="round"/>
    <path d="M15.4609 12.3281V5.67195C15.4609 5.57234 15.4345 5.47451 15.3843 5.38847C15.3341 5.30244 15.2619 5.23127 15.1752 5.18226L9.26897 1.84394C9.18453 1.79621 9.08918 1.77113 8.99219 1.77113C8.89519 1.77113 8.79985 1.79621 8.7154 1.84394L2.80915 5.18226C2.72244 5.23127 2.65029 5.30244 2.60009 5.38847C2.54989 5.47451 2.52344 5.57234 2.52344 5.67195V12.3281C2.52344 12.4277 2.54989 12.5255 2.60009 12.6115C2.65029 12.6976 2.72244 12.7687 2.80915 12.8177L8.7154 16.1561C8.79985 16.2038 8.89519 16.2289 8.99219 16.2289C9.08918 16.2289 9.18453 16.2038 9.26897 16.1561L15.1752 12.8177C15.2619 12.7687 15.3341 12.6976 15.3843 12.6115C15.4345 12.5255 15.4609 12.4277 15.4609 12.3281V12.3281Z" stroke="white" stroke-linecap="round" stroke-linejoin="round"/>
    <path d="M15.384 5.38785L9.06694 9.00002L2.60107 5.38708" stroke="white" stroke-linecap="round" stroke-linejoin="round"/>
    <path d="M12.4469 10.4422V7.06718L5.92334 3.42204" stroke="white" stroke-linecap="round" stroke-linejoin="round"/>
</svg>
